Flat-Remix-Dark/apps/scalable/echonest.svg

<svg xmlns="http://www.w3.org/2000/svg" xmlns:xlink="http://www.w3.org/1999/xlink" width="384pt" height="384pt" version="1.1" viewBox="0 0 384 384">
 <defs>
  <filter id="alpha" width="100%" height="100%" x="0%" y="0%" filterUnits="objectBoundingBox">
   <feColorMatrix in="SourceGraphic" type="matrix" values="0 0 0 0 1 0 0 0 0 1 0 0 0 0 1 0 0 0 1 0"/>
  </filter>
  <mask id="mask0">
   <g filter="url(#alpha)">
    <rect width="384" height="384" x="0" y="0" style="fill:rgb(0%,0%,0%);fill-opacity:0.2"/>
   </g>
  </mask>
  <clipPath id="clip1">
   <rect width="384" height="384" x="0" y="0"/>
  </clipPath>
  <g id="surface5" clip-path="url(#clip1)">
   <path style="fill:rgb(0%,0%,0%)" d="M 359.746094 190.96875 C 357.0625 281.707031 282.78125 353.902344 192 354 C 101.996094 353.9375 28.03125 282.957031 24.265625 193.03125 C 24.152344 194.6875 24.0625 196.34375 24 198 C 24 290.785156 99.214844 366 192 366 C 284.785156 366 360 290.785156 360 198 C 359.964844 195.65625 359.882812 193.308594 359.746094 190.96875 Z M 359.746094 190.96875"/>
  </g>
  <mask id="mask1">
   <g filter="url(#alpha)">
    <rect width="384" height="384" x="0" y="0" style="fill:rgb(0%,0%,0%);fill-opacity:0.101961"/>
   </g>
  </mask>
  <clipPath id="clip2">
   <rect width="384" height="384" x="0" y="0"/>
  </clipPath>
  <g id="surface8" clip-path="url(#clip2)">
   <path style="fill:rgb(100%,100%,100%)" d="M 191.988281 24 C 99.210938 24.007812 24 99.222656 24 192 C 24.027344 192.984375 24.0625 193.96875 24.105469 194.953125 C 25.765625 103.40625 100.425781 30.046875 191.988281 30 L 192 30 C 283.5625 30.074219 358.199219 103.453125 359.835938 195 C 359.894531 194 359.945312 193 359.988281 192 C 359.988281 99.222656 284.777344 24.007812 192 24 Z M 191.988281 24"/>
  </g>
  <mask id="mask2">
   <g filter="url(#alpha)">
    <rect width="384" height="384" x="0" y="0" style="fill:rgb(0%,0%,0%);fill-opacity:0.2"/>
   </g>
  </mask>
  <clipPath id="clip3">
   <rect width="384" height="384" x="0" y="0"/>
  </clipPath>
  <g id="surface11" clip-path="url(#clip3)">
   <path style="fill:rgb(0%,0%,0%)" d="M 192 78 C 125.726562 78 72 131.726562 72 198 C 72 264.273438 125.726562 318 192 318 L 192 282 C 145.609375 282 108 244.390625 108 198 C 108 151.609375 145.609375 114 192 114 C 238.390625 114 276 151.609375 276 198 L 312 198 C 312 131.726562 258.273438 78 192 78 Z M 192 78"/>
   <path style="fill:rgb(0%,0%,0%)" d="M 192 138 C 158.863281 138 132 164.863281 132 198 L 168 198 C 168 184.746094 178.746094 174 192 174 C 205.253906 174 216 184.746094 216 198 L 252 198 C 252 164.863281 225.136719 138 192 138 Z M 192 138"/>
  </g>
 </defs>
 <g>
  <use mask="url(#mask0)" xlink:href="#surface5"/>
  <path style="fill:rgb(29.803922%,29.803922%,29.803922%)" d="M 360 192 C 360 284.785156 284.785156 360 192 360 C 99.214844 360 24 284.785156 24 192 C 24 99.214844 99.214844 24 192 24 C 284.785156 24 360 99.214844 360 192 Z M 360 192"/>
  <use mask="url(#mask1)" xlink:href="#surface8"/>
  <use mask="url(#mask2)" xlink:href="#surface11"/>
  <path style="fill:rgb(100%,100%,100%)" d="M 192 72 C 125.726562 72 72 125.726562 72 192 C 72 258.273438 125.726562 312 192 312 L 192 276 C 145.609375 276 108 238.390625 108 192 C 108 145.609375 145.609375 108 192 108 C 238.390625 108 276 145.609375 276 192 L 312 192 C 312 125.726562 258.273438 72 192 72 Z M 192 72"/>
  <path style="fill:rgb(24.313725%,80.392157%,96.470588%)" d="M 192 132 C 158.863281 132 132 158.863281 132 192 L 168 192 C 168 178.746094 178.746094 168 192 168 C 205.253906 168 216 178.746094 216 192 L 252 192 C 252 158.863281 225.136719 132 192 132 Z M 192 132"/>
 </g>
</svg>

<svg xmlns="http://www.w3.org/2000/svg" xmlns:xlink="http://www.w3.org/1999/xlink" width="384pt" height="384pt" version="1.1" viewBox="0 0 384 384">
 <defs>
  <filter id="alpha" width="100%" height="100%" x="0%" y="0%" filterUnits="objectBoundingBox">
   <feColorMatrix in="SourceGraphic" type="matrix" values="0 0 0 0 1 0 0 0 0 1 0 0 0 0 1 0 0 0 1 0"/>
  </filter>
  <mask id="mask0">
   <g filter="url(#alpha)">
    <rect width="384" height="384" x="0" y="0" style="fill:rgb(0%,0%,0%);fill-opacity:0.2"/>
   </g>
  </mask>
  <clipPath id="clip1">
   <rect width="384" height="384" x="0" y="0"/>
  </clipPath>
  <g id="surface5" clip-path="url(#clip1)">
   <path style="fill:rgb(0%,0%,0%)" d="M 359.746094 190.96875 C 357.0625 281.707031 282.78125 353.902344 192 354 C 101.996094 353.9375 28.03125 282.957031 24.265625 193.03125 C 24.152344 194.6875 24.0625 196.34375 24 198 C 24 290.785156 99.214844 366 192 366 C 284.785156 366 360 290.785156 360 198 C 359.964844 195.65625 359.882812 193.308594 359.746094 190.96875 Z M 359.746094 190.96875"/>
  </g>
  <mask id="mask1">
   <g filter="url(#alpha)">
    <rect width="384" height="384" x="0" y="0" style="fill:rgb(0%,0%,0%);fill-opacity:0.101961"/>
   </g>
  </mask>
  <clipPath id="clip2">
   <rect width="384" height="384" x="0" y="0"/>
  </clipPath>
  <g id="surface8" clip-path="url(#clip2)">
   <path style="fill:rgb(100%,100%,100%)" d="M 191.988281 24 C 99.210938 24.007812 24 99.222656 24 192 C 24.027344 192.984375 24.0625 193.96875 24.105469 194.953125 C 25.765625 103.40625 100.425781 30.046875 191.988281 30 L 192 30 C 283.5625 30.074219 358.199219 103.453125 359.835938 195 C 359.894531 194 359.945312 193 359.988281 192 C 359.988281 99.222656 284.777344 24.007812 192 24 Z M 191.988281 24"/>
  </g>
 </defs>
 <use width="100%" height="100%" x="0" y="0" mask="url(#mask0)" xlink:href="#surface5"/>
 <path d="M 360,192 C 360,284.78516 284.78516,360 192,360 99.214844,360 24,284.78516 24,192 24,99.214844 99.214844,24 192,24 c 92.78516,0 168,75.214844 168,168 z m 0,0" style="fill:#353535"/>
 <use width="100%" height="100%" x="0" y="0" mask="url(#mask1)" xlink:href="#surface8"/>
 <path style="fill:#0f0f0f" d="m 192,79.5 c -66.27345,0 -120,53.72656 -120,120 0,66.27343 53.72655,120 120,120 v -36 c -46.39064,0 -84,-37.60939 -84,-84 0,-46.39063 37.60936,-84 84,-84 46.39061,0 84,37.60937 84,84 h 36 c 0,-66.27344 -53.72658,-120 -120,-120 z m 0,60 c -33.13673,0 -60,26.86328 -60,60 h 36 c 0,-13.25391 10.74609,-24 24,-24 13.2539,0 24,10.74609 24,24 h 36 c 0,-33.13672 -26.86328,-60 -60,-60 z"/>
 <g>
  <path style="fill:#ffffff" d="m 192,72 c -66.27344,0 -120,53.72656 -120,120 0,66.27344 53.72656,120 120,120 v -36 c -46.39063,0 -84,-37.60938 -84,-84 0,-46.39063 37.60937,-84 84,-84 46.39062,0 84,37.60937 84,84 h 36 C 312,125.72656 258.27344,72 192,72 Z m 0,0"/>
  <path style="fill:#3dccf5" d="m 192,132 c -33.13672,0 -60,26.86328 -60,60 h 36 c 0,-13.25391 10.74609,-24 24,-24 13.25391,0 24,10.74609 24,24 h 36 c 0,-33.13672 -26.86328,-60 -60,-60 z m 0,0"/>
 </g>
</svg>
